!!!OTL: 673. Tief unter der Erd'.
!!!ARE: Europa, Mitteleuropa, Deutschland, Rheinland; Nassau; Wetterau
!!!SCT: B0673
!!!TXL: @@DE
!!!YEM: Copyright 1995, estate of Helmut Schaffrath.
**kern	**text
*ICvox	*
*Ivox	*
*clefG2	*
*M3/4	*
*k[b-e-]	*
*B-:	*
!LO:TX:a:t=Mäßig langſam.	!
{4d	Der
=1	=1
4f	Menſch
4.f	ſoll
8f	nicht
=2	=2
4g	ſtolʒ
4.g	ſein
8f	auf
=3	=3
4e-	Glück
4e-	und
4g	auf
=4	=4
4f	Geld,
4r}	.
{4f	denn_das
=5	=5
4dd	Schickſal
4.cc	.
8b-	das
=6	=6
4a	hängt
4.g	ja
8g	nicht
=7	=7
4f	ab
4f	von
4e-	der
=8	=8
4d	Welt.
4r}	.
{8fL	Der
8aJ	.
=9	=9
4.b-	ei-
8cc	-ne
4dd	hat_die
=10	=10
4cc	Gaben,
4cc	.
8fL	die
8aJ	.
=11	=11
4.b-	Gott
8cc	ihm
4dd	be-
=12	=12
4cc	-ſchert,
4r}	.
{4f	der
=13	=13
4ee-	an-
4dd	-dre
4cc	muß
=14	=14
4b-	gra-
4.a	-ben
8g	tief
=15	=15
4f	un-
4f	-ter
4e-	der
=16	=16
4d	Erd'.
4r}	.
{8fL	Der
8aJ	.
=17	=17
4.b-	ei-
8cc	-ne
4dd	hat_die
=18	=18
4cc	Gaben,
4cc	.
8fL	die
8aJ	.
=19	=19
4.b-	Gott
8cc	ihm
4dd	be-
=20	=20
4cc	-ſchert,
4r}	.
{4f	der
=21	=21
4ee-	an-
4dd	-dre
4cc	muß
=22	=22
4b-	gra-
4.a	-ben
8g	tief
=23	=23
4f	un-
4f	-ter
4e-	der
=24	=24
4d	Erd'.
4r}	.
==	==
!!!AGN: Moral - Lied, Vergaenglichkeit
!!!GTL: Didaktische Lieder: Betrachtungen, Vergleiche und Moralisationen
!!!ONB: ESAC (Essen Associative Code) Database: BOEHME
!!!AMT: simple triple
!!!AIN: vox
!!!EED: Helmut Schaffrath
!!!EEV: 1.0
!!Volksweiſe vom Rhein im Naſſauerlande und der Weiterau 1880-92.
!!@@COMMENT:"Das Lied in dieſer Form wird am Rhein, in Naſſau und Heſſen vom Volk viel geſungen-
!!Es iſt die Umbildung eines Liedes von Karl Elmar, gedruckt in ſeiner Dichtung "Unter der Erde-
!!Lebensbild mit Geſang. Wien 1856. Muſik daʒu von C. Suppe um 1855. Die Melodie hier
!!hat nur noch einʒelne Grundʒüge des Originals, ſie iſt nach Tonfolge und Modulation ʒwar
!!vereinfacht, aber verflacht. Auch den Tert hat das Volk weſentlich geändert. Hier das Original:"
!!@@END:
!!!URL-scan: https://archive.org/details/BoehmeVtLieder1895/page/n523/mode/2up
!!!ENC: Anna Maria Matuszewska
!!!EEV: 2024/17/07
*-	*-
